images/background/wave-down.svg

<svg width="100%" height="100%" id="svg" viewBox="0 0 1440 400" xmlns="http://www.w3.org/2000/svg" class="transition duration-300 ease-in-out delay-150"><style>
          .path-0{
            animation:pathAnim-0 4s;
            animation-timing-function: linear;
            animation-iteration-count: infinite;
          }
          @keyframes pathAnim-0{
            0%{
              d: path("M 0,400 C 0,400 0,133 0,133 C 91.58227413260047,141.667124699416 183.16454826520095,150.33424939883201 238,162 C 292.83545173479905,173.66575060116799 310.9240810717967,188.33012710408792 377,180 C 443.0759189282033,171.66987289591208 557.1391274476125,140.34524218481624 635,128 C 712.8608725523875,115.65475781518376 754.5194091377534,122.28890415664719 824,113 C 893.4805908622466,103.71109584335281 990.783236001374,78.49914118859499 1059,86 C 1127.216763998626,93.50085881140501 1166.3476468567503,133.71453108897285 1225,147 C 1283.6523531432497,160.28546891102715 1361.8261765716247,146.64273445551356 1440,133 C 1440,133 1440,400 1440,400 Z");
            }
            25%{
              d: path("M 0,400 C 0,400 0,133 0,133 C 92.50291995877706,111.05908622466507 185.0058399175541,89.11817244933013 243,94 C 300.9941600824459,98.88182755066987 324.4795602885606,130.58639642734454 396,141 C 467.5204397114394,151.41360357265546 587.0759189282034,140.53624184129166 654,126 C 720.9240810717966,111.46375815870834 735.216763998626,93.26863620748883 792,98 C 848.783236001374,102.73136379251117 948.057025077293,130.38921332875302 1028,145 C 1107.942974922707,159.61078667124698 1168.555135692202,161.17451047749913 1234,157 C 1299.444864307798,152.82548952250087 1369.722432153899,142.91274476125045 1440,133 C 1440,133 1440,400 1440,400 Z");
            }
            50%{
              d: path("M 0,400 C 0,400 0,133 0,133 C 63.79800755754036,113.36963242871866 127.59601511508072,93.73926485743732 194,97 C 260.4039848849193,100.26073514256268 329.41394709721754,126.41257299896941 398,128 C 466.58605290278246,129.5874270010306 534.7481964960494,106.610443146685 611,109 C 687.2518035039506,111.389556853315 771.5932669185847,139.14565441429062 841,135 C 910.4067330814153,130.85434558570938 964.8787358296117,94.80693919615253 1030,85 C 1095.1212641703883,75.19306080384747 1170.891789762968,91.62658880109927 1241,104 C 1311.108210237032,116.37341119890073 1375.554105118516,124.68670559945036 1440,133 C 1440,133 1440,400 1440,400 Z");
            }
            75%{
              d: path("M 0,400 C 0,400 0,133 0,133 C 61.81380968739266,114.49295774647888 123.62761937478533,95.98591549295774 188,109 C 252.37238062521467,122.01408450704226 319.3033321882514,166.54929577464787 399,180 C 478.6966678117486,193.45070422535213 571.1590518722089,175.81690140845072 647,155 C 722.8409481277911,134.18309859154928 782.060460322913,110.18309859154928 838,111 C 893.939539677087,111.81690140845072 946.5991068361388,137.45070422535213 1009,136 C 1071.4008931638612,134.54929577464787 1143.5431123325318,106.01408450704226 1217,101 C 1290.4568876674682,95.98591549295774 1365.2284438337342,114.49295774647888 1440,133 C 1440,133 1440,400 1440,400 Z");
            }
            100%{
              d: path("M 0,400 C 0,400 0,133 0,133 C 91.58227413260047,141.667124699416 183.16454826520095,150.33424939883201 238,162 C 292.83545173479905,173.66575060116799 310.9240810717967,188.33012710408792 377,180 C 443.0759189282033,171.66987289591208 557.1391274476125,140.34524218481624 635,128 C 712.8608725523875,115.65475781518376 754.5194091377534,122.28890415664719 824,113 C 893.4805908622466,103.71109584335281 990.783236001374,78.49914118859499 1059,86 C 1127.216763998626,93.50085881140501 1166.3476468567503,133.71453108897285 1225,147 C 1283.6523531432497,160.28546891102715 1361.8261765716247,146.64273445551356 1440,133 C 1440,133 1440,400 1440,400 Z");
            }
          }</style><defs><linearGradient id="gradient" x1="1%" y1="58%" x2="99%" y2="42%"><stop offset="5%" stop-color="#7aabf588"></stop><stop offset="95%" stop-color="#11346888"></stop></linearGradient></defs><path d="M 0,400 C 0,400 0,133 0,133 C 91.58227413260047,141.667124699416 183.16454826520095,150.33424939883201 238,162 C 292.83545173479905,173.66575060116799 310.9240810717967,188.33012710408792 377,180 C 443.0759189282033,171.66987289591208 557.1391274476125,140.34524218481624 635,128 C 712.8608725523875,115.65475781518376 754.5194091377534,122.28890415664719 824,113 C 893.4805908622466,103.71109584335281 990.783236001374,78.49914118859499 1059,86 C 1127.216763998626,93.50085881140501 1166.3476468567503,133.71453108897285 1225,147 C 1283.6523531432497,160.28546891102715 1361.8261765716247,146.64273445551356 1440,133 C 1440,133 1440,400 1440,400 Z" stroke="none" stroke-width="0" fill="url(#gradient)" class="transition-all duration-300 ease-in-out delay-150 path-0"></path><style>
          .path-1{
            animation:pathAnim-1 4s;
            animation-timing-function: linear;
            animation-iteration-count: infinite;
          }
          @keyframes pathAnim-1{
            0%{
              d: path("M 0,400 C 0,400 0,266 0,266 C 75.12469941600824,241.75747165922365 150.24939883201648,217.51494331844728 211,228 C 271.7506011679835,238.48505668155272 318.1271040879423,283.69769838543453 383,287 C 447.8728959120577,290.30230161456547 531.2421848162143,251.69426313981452 610,252 C 688.7578151837857,252.30573686018548 762.9041566472004,291.5252490553074 840,289 C 917.0958433527996,286.4747509446926 997.1411885949844,242.2047406389557 1053,246 C 1108.8588114050156,249.7952593610443 1140.5310889728617,301.6557883888698 1201,313 C 1261.4689110271383,324.3442116111302 1350.7344555135692,295.17210580556514 1440,266 C 1440,266 1440,400 1440,400 Z");
            }
            25%{
              d: path("M 0,400 C 0,400 0,266 0,266 C 75.72930264513914,267.2497423565785 151.45860529027829,268.499484713157 222,257 C 292.5413947097217,245.500515286843 357.8948814840261,221.25180350395055 431,230 C 504.1051185159739,238.74819649604945 584.9618687736173,280.4933012710409 648,294 C 711.0381312263827,307.5066987289591 756.2576434215048,292.77499141188594 822,280 C 887.7423565784952,267.22500858811406 974.0075575403639,256.4067330814153 1052,264 C 1129.992442459636,271.5932669185847 1199.712126417039,297.59807626245276 1263,301 C 1326.287873582961,304.40192373754724 1383.1439367914804,285.2009618687736 1440,266 C 1440,266 1440,400 1440,400 Z");
            }
            50%{
              d: path("M 0,400 C 0,400 0,266 0,266 C 88.59154929577466,275.2669185846788 177.1830985915493,284.5338371693576 239,278 C 300.8169014084507,271.4661628306424 335.8591549295776,249.13156990724838 400,247 C 464.1408450704224,244.86843009275162 557.3802816901408,262.9398832016489 638,258 C 718.6197183098592,253.0601167983511 786.6197183098591,225.10889728615595 848,236 C 909.3802816901409,246.89110271384405 964.1408450704225,296.6245276537272 1020,311 C 1075.8591549295775,325.3754723462728 1132.8169014084508,304.39299209893505 1203,291 C 1273.1830985915492,277.60700790106495 1356.5915492957747,271.80350395053244 1440,266 C 1440,266 1440,400 1440,400 Z");
            }
            75%{
              d: path("M 0,400 C 0,400 0,266 0,266 C 82.87186533837169,263.02919958777056 165.74373067674338,260.05839917554107 226,249 C 286.2562693232566,237.94160082445893 323.89694263139813,218.79560288560634 399,228 C 474.10305736860187,237.20439711439366 586.6684987976641,274.7591892820337 654,284 C 721.3315012023359,293.2408107179663 743.4290621779458,274.1676399862591 806,278 C 868.5709378220542,281.8323600137409 971.6152524905531,308.5702507729302 1042,303 C 1112.384747509447,297.4297492270698 1150.109927859842,259.55135692202 1211,248 C 1271.890072140158,236.44864307798005 1355.945036070079,251.22432153899 1440,266 C 1440,266 1440,400 1440,400 Z");
            }
            100%{
              d: path("M 0,400 C 0,400 0,266 0,266 C 75.12469941600824,241.75747165922365 150.24939883201648,217.51494331844728 211,228 C 271.7506011679835,238.48505668155272 318.1271040879423,283.69769838543453 383,287 C 447.8728959120577,290.30230161456547 531.2421848162143,251.69426313981452 610,252 C 688.7578151837857,252.30573686018548 762.9041566472004,291.5252490553074 840,289 C 917.0958433527996,286.4747509446926 997.1411885949844,242.2047406389557 1053,246 C 1108.8588114050156,249.7952593610443 1140.5310889728617,301.6557883888698 1201,313 C 1261.4689110271383,324.3442116111302 1350.7344555135692,295.17210580556514 1440,266 C 1440,266 1440,400 1440,400 Z");
            }
          }</style><defs><linearGradient id="gradient" x1="1%" y1="58%" x2="99%" y2="42%"><stop offset="5%" stop-color="#7aabf5ff"></stop><stop offset="95%" stop-color="#113468ff"></stop></linearGradient></defs><path d="M 0,400 C 0,400 0,266 0,266 C 75.12469941600824,241.75747165922365 150.24939883201648,217.51494331844728 211,228 C 271.7506011679835,238.48505668155272 318.1271040879423,283.69769838543453 383,287 C 447.8728959120577,290.30230161456547 531.2421848162143,251.69426313981452 610,252 C 688.7578151837857,252.30573686018548 762.9041566472004,291.5252490553074 840,289 C 917.0958433527996,286.4747509446926 997.1411885949844,242.2047406389557 1053,246 C 1108.8588114050156,249.7952593610443 1140.5310889728617,301.6557883888698 1201,313 C 1261.4689110271383,324.3442116111302 1350.7344555135692,295.17210580556514 1440,266 C 1440,266 1440,400 1440,400 Z" stroke="none" stroke-width="0" fill="url(#gradient)" class="transition-all duration-300 ease-in-out delay-150 path-1"></path></svg>

<svg width="100%" height="100%" id="svg" viewBox="0 0 1440 400" xmlns="http://www.w3.org/2000/svg" class="transition duration-300 ease-in-out delay-150"><style>@keyframes pathAnim-0{0%{d:path(&quot;M 0,400 C 0,400 0,133 0,133 C 91.58227413260047,141.667124699416 183.16454826520095,150.33424939883201 238,162 C 292.83545173479905,173.66575060116799 310.9240810717967,188.33012710408792 377,180 C 443.0759189282033,171.66987289591208 557.1391274476125,140.34524218481624 635,128 C 712.8608725523875,115.65475781518376 754.5194091377534,122.28890415664719 824,113 C 893.4805908622466,103.71109584335281 990.783236001374,78.49914118859499 1059,86 C 1127.216763998626,93.50085881140501 1166.3476468567503,133.71453108897285 1225,147 C 1283.6523531432497,160.28546891102715 1361.8261765716247,146.64273445551356 1440,133 C 1440,133 1440,400 1440,400 Z&quot;)}25%{d:path(&quot;M 0,400 C 0,400 0,133 0,133 C 92.50291995877706,111.05908622466507 185.0058399175541,89.11817244933013 243,94 C 300.9941600824459,98.88182755066987 324.4795602885606,130.58639642734454 396,141 C 467.5204397114394,151.41360357265546 587.0759189282034,140.53624184129166 654,126 C 720.9240810717966,111.46375815870834 735.216763998626,93.26863620748883 792,98 C 848.783236001374,102.73136379251117 948.057025077293,130.38921332875302 1028,145 C 1107.942974922707,159.61078667124698 1168.555135692202,161.17451047749913 1234,157 C 1299.444864307798,152.82548952250087 1369.722432153899,142.91274476125045 1440,133 C 1440,133 1440,400 1440,400 Z&quot;)}50%{d:path(&quot;M 0,400 C 0,400 0,133 0,133 C 63.79800755754036,113.36963242871866 127.59601511508072,93.73926485743732 194,97 C 260.4039848849193,100.26073514256268 329.41394709721754,126.41257299896941 398,128 C 466.58605290278246,129.5874270010306 534.7481964960494,106.610443146685 611,109 C 687.2518035039506,111.389556853315 771.5932669185847,139.14565441429062 841,135 C 910.4067330814153,130.85434558570938 964.8787358296117,94.80693919615253 1030,85 C 1095.1212641703883,75.19306080384747 1170.891789762968,91.62658880109927 1241,104 C 1311.108210237032,116.37341119890073 1375.554105118516,124.68670559945036 1440,133 C 1440,133 1440,400 1440,400 Z&quot;)}75%{d:path(&quot;M 0,400 C 0,400 0,133 0,133 C 61.81380968739266,114.49295774647888 123.62761937478533,95.98591549295774 188,109 C 252.37238062521467,122.01408450704226 319.3033321882514,166.54929577464787 399,180 C 478.6966678117486,193.45070422535213 571.1590518722089,175.81690140845072 647,155 C 722.8409481277911,134.18309859154928 782.060460322913,110.18309859154928 838,111 C 893.939539677087,111.81690140845072 946.5991068361388,137.45070422535213 1009,136 C 1071.4008931638612,134.54929577464787 1143.5431123325318,106.01408450704226 1217,101 C 1290.4568876674682,95.98591549295774 1365.2284438337342,114.49295774647888 1440,133 C 1440,133 1440,400 1440,400 Z&quot;)}}@keyframes pathAnim-1{0%{d:path(&quot;M 0,400 C 0,400 0,266 0,266 C 75.12469941600824,241.75747165922365 150.24939883201648,217.51494331844728 211,228 C 271.7506011679835,238.48505668155272 318.1271040879423,283.69769838543453 383,287 C 447.8728959120577,290.30230161456547 531.2421848162143,251.69426313981452 610,252 C 688.7578151837857,252.30573686018548 762.9041566472004,291.5252490553074 840,289 C 917.0958433527996,286.4747509446926 997.1411885949844,242.2047406389557 1053,246 C 1108.8588114050156,249.7952593610443 1140.5310889728617,301.6557883888698 1201,313 C 1261.4689110271383,324.3442116111302 1350.7344555135692,295.17210580556514 1440,266 C 1440,266 1440,400 1440,400 Z&quot;)}25%{d:path(&quot;M 0,400 C 0,400 0,266 0,266 C 75.72930264513914,267.2497423565785 151.45860529027829,268.499484713157 222,257 C 292.5413947097217,245.500515286843 357.8948814840261,221.25180350395055 431,230 C 504.1051185159739,238.74819649604945 584.9618687736173,280.4933012710409 648,294 C 711.0381312263827,307.5066987289591 756.2576434215048,292.77499141188594 822,280 C 887.7423565784952,267.22500858811406 974.0075575403639,256.4067330814153 1052,264 C 1129.992442459636,271.5932669185847 1199.712126417039,297.59807626245276 1263,301 C 1326.287873582961,304.40192373754724 1383.1439367914804,285.2009618687736 1440,266 C 1440,266 1440,400 1440,400 Z&quot;)}50%{d:path(&quot;M 0,400 C 0,400 0,266 0,266 C 88.59154929577466,275.2669185846788 177.1830985915493,284.5338371693576 239,278 C 300.8169014084507,271.4661628306424 335.8591549295776,249.13156990724838 400,247 C 464.1408450704224,244.86843009275162 557.3802816901408,262.9398832016489 638,258 C 718.6197183098592,253.0601167983511 786.6197183098591,225.10889728615595 848,236 C 909.3802816901409,246.89110271384405 964.1408450704225,296.6245276537272 1020,311 C 1075.8591549295775,325.3754723462728 1132.8169014084508,304.39299209893505 1203,291 C 1273.1830985915492,277.60700790106495 1356.5915492957747,271.80350395053244 1440,266 C 1440,266 1440,400 1440,400 Z&quot;)}75%{d:path(&quot;M 0,400 C 0,400 0,266 0,266 C 82.87186533837169,263.02919958777056 165.74373067674338,260.05839917554107 226,249 C 286.2562693232566,237.94160082445893 323.89694263139813,218.79560288560634 399,228 C 474.10305736860187,237.20439711439366 586.6684987976641,274.7591892820337 654,284 C 721.3315012023359,293.2408107179663 743.4290621779458,274.1676399862591 806,278 C 868.5709378220542,281.8323600137409 971.6152524905531,308.5702507729302 1042,303 C 1112.384747509447,297.4297492270698 1150.109927859842,259.55135692202 1211,248 C 1271.890072140158,236.44864307798005 1355.945036070079,251.22432153899 1440,266 C 1440,266 1440,400 1440,400 Z&quot;)}}</style><defs><linearGradient id="gradient" x1="1%" y1="58%" x2="99%" y2="42%"><stop offset="5%" stop-color="#EAE0CC"/><stop offset="95%" stop-color="#A0A083"/></linearGradient></defs><path d="M0 400V133c91.582 8.667 183.165 17.334 238 29 54.835 11.666 72.924 26.33 139 18 66.076-8.33 180.14-39.655 258-52 77.86-12.345 119.52-5.711 189-15s166.783-34.5 235-27c68.217 7.5 107.348 47.715 166 61 58.652 13.285 136.826-.357 215-14v267Z" stroke-width="0" fill="url(#gradient)" class="transition-all duration-300 ease-in-out delay-150" style="animation:pathAnim-0 4s;animation-timing-function:linear;animation-iteration-count:infinite"/><path d="M0 400V266c75.125-24.243 150.25-48.485 211-38s107.127 55.698 172 59c64.873 3.302 148.242-35.306 227-35 78.758.306 152.904 39.525 230 37 77.096-2.525 157.141-46.795 213-43 55.859 3.795 87.531 55.656 148 67 60.469 11.344 149.734-17.828 239-47v134Z" stroke-width="0" fill="url(#gradient)" class="transition-all duration-300 ease-in-out delay-150" style="animation:pathAnim-1 4s;animation-timing-function:linear;animation-iteration-count:infinite"/></svg>
